X: 574
T: A yuyu
%%abc-version 2.0
%%abcx-abcm2ps-target-version 5.9.1 (29 Sep 2008)
%%abc-creator hum2abc beta
%%abcx-conversion-date 2013/10/02 07:52:30
%%abc-edited-by Helmut Schaffrath
%%humdrum-veritas 1480522744
%%humdrum-veritas-data 2471190106
%%continueall 1
%%barnumbers 0
L: 1/8
M: 2/4
K: A
ce2f [I:setbarnb 1]| 
e2B2 | 
ce2B | 
A F A B | 
ce2c | 
B2c2 | 
G FE2 | 
AB2F | 
E4 |]  



